rocketreach-logo.svg

<svg width="123" height="28" viewBox="0 0 123 28" fill="none" xmlns="http://www.w3.org/2000/svg">
  <path
    d="M41.8153 15.4765H39.7317V19.5658H37.8551V8.9209H41.6471C42.8895 8.9209 43.8472 9.20204 44.5202 9.75153C45.1932 10.301 45.5297 11.1061 45.5297 12.1412C45.5297 12.8568 45.3614 13.4447 45.012 13.9303C44.6626 14.4159 44.1837 14.7737 43.5625 15.042L45.9826 19.4764V19.5658H43.9766L41.8153 15.4765ZM39.7317 13.9942H41.66C42.2942 13.9942 42.786 13.8408 43.1354 13.5213C43.4848 13.2019 43.666 12.7802 43.666 12.2307C43.666 11.6556 43.4978 11.2211 43.1742 10.9016C42.8507 10.5949 42.3589 10.4288 41.6989 10.416H39.7187L39.7317 13.9942Z"
    fill="#415896" />
  <path
    d="M46.6038 15.5403C46.6038 14.7608 46.7591 14.0707 47.0697 13.4445C47.3803 12.8183 47.8204 12.3455 48.3769 12.0133C48.9334 11.681 49.5805 11.5149 50.3182 11.5149C51.3923 11.5149 52.2724 11.8599 52.9454 12.55C53.6183 13.2401 53.9807 14.1474 54.0325 15.2847L54.0454 15.7064C54.0454 16.4859 53.8901 17.1888 53.5925 17.8022C53.2948 18.4156 52.8548 18.8884 52.2853 19.2334C51.7159 19.5657 51.0688 19.7318 50.3311 19.7318C49.2051 19.7318 48.2992 19.3612 47.6133 18.62C46.9403 17.8788 46.5909 16.8821 46.5909 15.6553V15.5403H46.6038ZM48.4028 15.6936C48.4028 16.5115 48.571 17.1504 48.9075 17.6105C49.244 18.0705 49.7228 18.3005 50.3311 18.3005C50.9394 18.3005 51.4053 18.0705 51.7547 17.5977C52.0912 17.1249 52.2594 16.4476 52.2594 15.5403C52.2594 14.7352 52.0912 14.109 51.7418 13.6362C51.3923 13.1634 50.9264 12.9334 50.3182 12.9334C49.7358 12.9334 49.2699 13.1634 48.9204 13.6234C48.5839 14.0963 48.4028 14.7863 48.4028 15.6936Z"
    fill="#415896" />
  <path
    d="M58.6657 18.3007C59.1187 18.3007 59.4811 18.1729 59.7787 17.9173C60.0764 17.6618 60.2317 17.3423 60.2576 16.9589H61.953C61.9271 17.4573 61.7718 17.9046 61.4871 18.339C61.2023 18.7607 60.8011 19.1058 60.2964 19.3486C59.7917 19.5914 59.2611 19.7192 58.6787 19.7192C57.5527 19.7192 56.6727 19.3614 56.0126 18.6457C55.3526 17.9301 55.0291 16.9461 55.0291 15.681V15.5021C55.0291 14.3009 55.3526 13.3297 55.9997 12.614C56.6468 11.8856 57.5398 11.5278 58.6657 11.5278C59.6234 11.5278 60.4 11.7962 60.9953 12.3457C61.5906 12.8952 61.9142 13.6108 61.94 14.5053H60.2446C60.2188 14.0581 60.0635 13.6747 59.7787 13.3936C59.4811 13.0996 59.1058 12.9591 58.6528 12.9591C58.0704 12.9591 57.6174 13.1635 57.3068 13.5853C56.9962 14.007 56.828 14.6331 56.828 15.4765V15.7577C56.828 16.6139 56.9833 17.2528 57.2939 17.6745C57.6174 18.0835 58.0704 18.3007 58.6657 18.3007Z"
    fill="#415896" />
  <path
    d="M65.7191 16.1792L64.9167 16.9843V19.5657H63.1177V8.3457H64.9167V14.8247L65.4732 14.1346L67.6862 11.6682H69.8475L66.8709 14.9652L70.1581 19.5784H68.0745L65.7191 16.1792Z"
    fill="#415896" />
  <path
    d="M74.209 19.7191C73.0701 19.7191 72.1512 19.3613 71.4394 18.6584C70.7276 17.9556 70.3782 17.0099 70.3782 15.8215V15.6043C70.3782 14.812 70.5335 14.1091 70.8441 13.4829C71.1547 12.8568 71.5818 12.3839 72.1383 12.0261C72.6948 11.6811 73.316 11.5022 74.0019 11.5022C75.089 11.5022 75.9303 11.8472 76.5256 12.5373C77.1209 13.2274 77.4186 14.1986 77.4186 15.4509V16.1665H72.19C72.2418 16.8183 72.4618 17.3422 72.8501 17.7128C73.2383 18.0962 73.7301 18.2878 74.3125 18.2878C75.1408 18.2878 75.8138 17.9556 76.3315 17.3039L77.3021 18.2112C76.9786 18.684 76.5515 19.0546 76.0209 19.3102C75.4773 19.5913 74.869 19.7191 74.209 19.7191ZM73.989 12.9462C73.4972 12.9462 73.096 13.1124 72.7983 13.4574C72.5007 13.8024 72.3065 14.2752 72.2159 14.8886H75.6455V14.7608C75.6067 14.1602 75.4514 13.713 75.1667 13.4063C74.882 13.0996 74.4937 12.9462 73.989 12.9462Z"
    fill="#415896" />
  <path
    d="M80.8741 9.73861V11.6555H82.2847V12.9717H80.8741V17.3805C80.8741 17.6871 80.9388 17.9044 81.0553 18.0322C81.1717 18.16 81.3917 18.2366 81.7024 18.2366C81.9094 18.2366 82.1165 18.2111 82.3365 18.16V19.5401C81.9224 19.6551 81.5341 19.7062 81.1459 19.7062C79.7611 19.7062 79.0751 18.9523 79.0751 17.4443V12.9589H77.7551V11.6427H79.0751V9.72583L80.8741 9.73861Z"
    fill="#415896" />
  <path
    d="M87.5909 15.4765H85.5073V19.5658H83.6307V8.9209H87.4227C88.6651 8.9209 89.6228 9.20204 90.2958 9.75153C90.9687 10.301 91.3052 11.1061 91.3052 12.1412C91.3052 12.8568 91.137 13.4447 90.7876 13.9303C90.4381 14.4159 89.9593 14.7737 89.3381 15.042L91.7582 19.4764V19.5658H89.7522L87.5909 15.4765ZM85.5073 13.9942H87.4356C88.0698 13.9942 88.5615 13.8408 88.911 13.5213C89.2604 13.2019 89.4416 12.7802 89.4416 12.2307C89.4416 11.6556 89.2734 11.2211 88.9498 10.9016C88.6263 10.5949 88.1345 10.4288 87.4744 10.416H85.4943L85.5073 13.9942Z"
    fill="#415896" />
  <path
    d="M96.249 19.7191C95.1101 19.7191 94.1913 19.3613 93.4795 18.6584C92.7676 17.9556 92.4182 17.0099 92.4182 15.8215V15.6043C92.4182 14.812 92.5735 14.1091 92.8841 13.4829C93.1947 12.8568 93.6218 12.3839 94.1783 12.0261C94.7348 11.6811 95.356 11.5022 96.0419 11.5022C97.1291 11.5022 97.9703 11.8472 98.5656 12.5373C99.161 13.2274 99.4586 14.1986 99.4586 15.4509V16.1665H94.2301C94.2818 16.8183 94.5019 17.3422 94.8901 17.7128C95.2784 18.0962 95.7702 18.2878 96.3526 18.2878C97.1808 18.2878 97.8538 17.9556 98.3715 17.3039L99.3421 18.2112C99.0186 18.684 98.5915 19.0546 98.0609 19.3102C97.5173 19.5913 96.922 19.7191 96.249 19.7191ZM96.0419 12.9462C95.5502 12.9462 95.149 13.1124 94.8513 13.4574C94.5536 13.8024 94.3595 14.2752 94.2689 14.8886H97.6985V14.7608C97.6597 14.1602 97.5044 13.713 97.2197 13.4063C96.922 13.0996 96.5337 12.9462 96.0419 12.9462Z"
    fill="#415896" />
  <path
    d="M105.451 19.5657C105.373 19.4124 105.308 19.1696 105.244 18.8246C104.674 19.4124 103.975 19.7063 103.147 19.7063C102.345 19.7063 101.685 19.4763 101.18 19.029C100.675 18.5818 100.416 18.0195 100.416 17.3422C100.416 16.4988 100.727 15.8471 101.361 15.3998C101.995 14.9525 102.901 14.7225 104.079 14.7225H105.179V14.1986C105.179 13.7896 105.062 13.4574 104.83 13.2146C104.597 12.9718 104.247 12.844 103.768 12.844C103.354 12.844 103.018 12.9462 102.759 13.1507C102.5 13.3552 102.371 13.6107 102.371 13.9174H100.572C100.572 13.4829 100.714 13.074 101.012 12.7034C101.296 12.3201 101.698 12.0261 102.202 11.8217C102.707 11.6044 103.264 11.5022 103.885 11.5022C104.817 11.5022 105.567 11.7322 106.124 12.205C106.68 12.6651 106.965 13.3296 106.978 14.173V17.7383C106.978 18.454 107.081 19.0163 107.276 19.438V19.5657H105.451ZM103.471 18.2878C103.82 18.2878 104.157 18.1984 104.467 18.0323C104.778 17.8661 105.011 17.6361 105.179 17.3422V15.8471H104.208C103.548 15.8471 103.044 15.9621 102.707 16.1921C102.371 16.4221 102.202 16.7416 102.202 17.1633C102.202 17.5083 102.319 17.7767 102.552 17.9812C102.772 18.1984 103.082 18.2878 103.471 18.2878Z"
    fill="#415896" />
  <path
    d="M111.961 18.3007C112.413 18.3007 112.776 18.1729 113.074 17.9173C113.371 17.6618 113.526 17.3423 113.552 16.9589H115.248C115.222 17.4573 115.067 17.9046 114.782 18.339C114.497 18.7607 114.096 19.1058 113.591 19.3486C113.086 19.5914 112.556 19.7192 111.973 19.7192C110.848 19.7192 109.967 19.3614 109.307 18.6457C108.647 17.9301 108.324 16.9461 108.324 15.681V15.5021C108.324 14.3009 108.647 13.3297 109.294 12.614C109.942 11.8856 110.835 11.5278 111.961 11.5278C112.918 11.5278 113.695 11.7962 114.29 12.3457C114.885 12.8952 115.209 13.6108 115.235 14.5053H113.539C113.514 14.0581 113.358 13.6747 113.074 13.3936C112.776 13.0996 112.401 12.9591 111.948 12.9591C111.365 12.9591 110.912 13.1635 110.602 13.5853C110.291 14.007 110.123 14.6331 110.123 15.4765V15.7577C110.123 16.6139 110.278 17.2528 110.589 17.6745C110.912 18.0835 111.365 18.3007 111.961 18.3007Z"
    fill="#415896" />
  <path
    d="M118.173 12.5245C118.755 11.8472 119.506 11.515 120.399 11.515C122.107 11.515 122.974 12.4734 123 14.403V19.5658H121.201V14.4669C121.201 13.9174 121.085 13.5341 120.839 13.304C120.606 13.074 120.243 12.959 119.79 12.959C119.066 12.959 118.535 13.2785 118.173 13.9047V19.553H116.374V8.33301H118.173V12.5245Z"
    fill="#415896" />
  <path
    d="M26.7898 7.57916C26.8415 7.45137 26.8933 7.3108 26.9451 7.18301C28.1228 4.16717 28.3169 1.50913 28.3557 0.767951C28.3687 0.563487 28.291 0.359023 28.1357 0.218454C27.9934 0.0778854 27.7863 -0.0115682 27.5792 0.00121081C26.8286 0.0395478 24.1367 0.244012 21.0824 1.39412C20.94 1.44524 20.8106 1.49635 20.6682 1.56025C18.727 0.563487 16.5139 0.0139906 14.1714 0.0139906C6.34154 0.0139906 0 6.2757 0 14.007C0 21.7383 6.34154 28 14.1714 28C22.0013 28 28.3428 21.7383 28.3428 14.007C28.3687 11.6812 27.7992 9.49601 26.7898 7.57916ZM27.6181 0.550708C27.7216 0.550708 27.8122 0.640161 27.8122 0.742393C27.7734 1.4708 27.5792 4.03938 26.4403 6.96577C25.2109 4.87001 23.4378 3.11929 21.3153 1.90528C24.292 0.78073 26.8933 0.589045 27.6181 0.550708Z"
    fill="#415896" />
  <path
    d="M27.618 0.550781C26.1556 0.614676 17.148 1.3303 12.8125 8.84435C10.3923 8.19262 9.61583 9.2405 9.61583 9.2405L6.16034 12.6525L10.3276 13.0998C10.4829 13.1125 10.6253 13.1892 10.7418 13.2914C10.8971 13.4448 10.9747 13.6876 10.923 13.9048C10.8065 14.4927 10.703 15.1188 10.6253 15.7578L11.5054 16.6268L12.3854 17.4957C13.0325 17.4191 13.6667 17.3296 14.262 17.2018C14.4949 17.1507 14.7149 17.2274 14.8832 17.3807C14.9997 17.4957 15.0644 17.6363 15.0773 17.7897L15.5303 21.9045L18.9987 18.5181C18.9987 18.5181 20.06 17.7513 19.3999 15.3616C26.9968 11.0679 27.7216 2.18649 27.7992 0.742466C27.8251 0.640234 27.7345 0.550781 27.618 0.550781ZM20.1764 8.09039C19.4388 7.36199 19.4388 6.17354 20.1764 5.44514C20.9141 4.71674 22.1177 4.71674 22.8554 5.44514C23.5931 6.17354 23.5931 7.36199 22.8554 8.09039C22.1177 8.81879 20.9141 8.81879 20.1764 8.09039Z"
    fill="white" />
  <path
    d="M12.8125 8.84432C10.3923 8.19259 9.61583 9.24047 9.61583 9.24047L6.16034 12.6525L10.3276 13.0997C10.4829 13.1125 10.6253 13.1892 10.7418 13.2914C10.8971 13.4448 10.9747 13.6876 10.923 13.9048C10.8065 14.4926 10.703 15.1188 10.6253 15.7578L11.5054 16.6267L12.3854 17.4957C13.0325 17.419 13.6667 17.3296 14.262 17.2018C14.4949 17.1507 14.7149 17.2273 14.8832 17.3807C14.9997 17.4957 15.0644 17.6363 15.0773 17.7896L15.5303 21.9045L18.9987 18.518C18.9987 18.518 20.06 17.7513 19.3999 15.3616C26.9968 11.0679 27.7216 2.18646 27.7992 0.742432L12.8125 8.84432ZM20.1764 8.09036C19.4388 7.36195 19.4388 6.17351 20.1764 5.4451C20.9141 4.7167 22.1177 4.7167 22.8554 5.4451C23.5931 6.17351 23.5931 7.36195 22.8554 8.09036C22.1177 8.81876 20.9141 8.81876 20.1764 8.09036Z"
    fill="white" />
  <path
    d="M12.3983 17.5085L11.5183 16.6395L10.6382 15.7705L2.40717 21.7511C2.9119 22.505 3.50723 23.2207 4.19315 23.8852C4.86613 24.5497 5.59088 25.1375 6.35445 25.6487L12.3983 17.5085Z"
    fill="#F5BC41" />
</svg>

<svg xmlns="http://www.w3.org/2000/svg" width="123" height="28" fill="none"><path fill="#415896" d="M41.815 15.477h-2.083v4.089h-1.877V8.92h3.792c1.242 0 2.2.281 2.873.83.673.55 1.01 1.355 1.01 2.39 0 .716-.169 1.304-.518 1.79-.35.485-.828.843-1.45 1.111l2.42 4.434v.09h-2.005zm-2.083-1.483h1.928c.634 0 1.126-.153 1.475-.473s.531-.74.531-1.29c0-.575-.168-1.01-.492-1.33-.323-.306-.815-.472-1.475-.485h-1.98zm6.872 1.546c0-.78.155-1.47.466-2.095.31-.627.75-1.1 1.307-1.432q.834-.498 1.941-.498c1.074 0 1.954.345 2.627 1.035s1.036 1.597 1.087 2.735l.013.421c0 .78-.155 1.483-.453 2.096a3.35 3.35 0 0 1-1.307 1.431c-.57.333-1.216.499-1.954.499q-1.689 0-2.718-1.112c-.673-.741-1.022-1.738-1.022-2.965v-.115zm1.799.154q0 1.226.505 1.916c.336.46.815.69 1.423.69s1.074-.23 1.424-.702c.336-.473.504-1.15.504-2.058 0-.805-.168-1.431-.517-1.904-.35-.473-.816-.703-1.424-.703q-.873 0-1.398.69c-.336.473-.517 1.163-.517 2.07M58.666 18.3c.453 0 .815-.127 1.113-.383a1.33 1.33 0 0 0 .479-.958h1.695a2.7 2.7 0 0 1-.466 1.38 2.97 2.97 0 0 1-1.19 1.01 3.66 3.66 0 0 1-1.618.37c-1.126 0-2.006-.358-2.666-1.073-.66-.716-.984-1.7-.984-2.965v-.179c0-1.201.324-2.172.97-2.888.648-.728 1.54-1.086 2.667-1.086.957 0 1.734.268 2.33.818.595.55.918 1.265.944 2.16h-1.695c-.026-.448-.181-.831-.466-1.112-.298-.294-.673-.435-1.126-.435-.583 0-1.036.205-1.346.626s-.479 1.048-.479 1.891v.282q0 1.284.466 1.916c.323.41.776.627 1.372.627m7.054-2.121-.803.804v2.582h-1.8V8.346h1.8v6.479l.556-.69 2.213-2.467h2.161l-2.976 3.297 3.287 4.613h-2.084zm8.489 3.54c-1.139 0-2.058-.359-2.77-1.062-.711-.702-1.06-1.648-1.06-2.837v-.217c0-.792.154-1.495.465-2.121a3.56 3.56 0 0 1 1.294-1.457 3.47 3.47 0 0 1 1.864-.524q1.63 0 2.524 1.035.893 1.036.893 2.914v.715H72.19c.052.652.272 1.176.66 1.547.388.383.88.575 1.463.575.828 0 1.5-.332 2.019-.984l.97.907c-.323.473-.75.844-1.281 1.1-.544.28-1.152.408-1.812.408m-.22-6.774c-.492 0-.893.166-1.19.511-.298.345-.493.818-.583 1.432h3.43v-.128c-.04-.6-.195-1.048-.48-1.355-.284-.306-.672-.46-1.177-.46m6.885-3.206v1.916h1.41v1.317h-1.41v4.409c0 .306.065.523.181.651.117.128.337.205.647.205.207 0 .415-.026.635-.077v1.38a4.4 4.4 0 0 1-1.191.166c-1.385 0-2.07-.754-2.07-2.262V12.96h-1.32v-1.316h1.32V9.726zm6.716 5.738h-2.083v4.089h-1.876V8.92h3.792c1.242 0 2.2.281 2.873.83.673.55 1.01 1.355 1.01 2.39 0 .716-.169 1.304-.518 1.79-.35.485-.829.843-1.45 1.111l2.42 4.434v.09h-2.006zm-2.083-1.483h1.929c.634 0 1.125-.153 1.475-.473s.53-.74.53-1.29c0-.575-.168-1.01-.491-1.33-.324-.306-.816-.472-1.476-.485h-1.98zm10.742 5.726c-1.139 0-2.058-.359-2.77-1.062-.711-.702-1.06-1.648-1.06-2.837v-.217c0-.792.154-1.495.465-2.121a3.56 3.56 0 0 1 1.294-1.457 3.47 3.47 0 0 1 1.864-.524q1.63 0 2.524 1.035.893 1.036.893 2.914v.715H94.23c.052.652.272 1.176.66 1.547.388.383.88.575 1.463.575.828 0 1.5-.332 2.019-.984l.97.907c-.323.473-.75.844-1.281 1.1-.544.28-1.139.408-1.812.408m-.207-6.774c-.492 0-.893.166-1.19.511-.298.345-.493.818-.583 1.432h3.43v-.128c-.04-.6-.195-1.048-.48-1.355-.297-.306-.685-.46-1.177-.46m9.409 6.621c-.078-.154-.143-.396-.207-.741q-.855.88-2.097.881c-.802 0-1.462-.23-1.967-.677a2.16 2.16 0 0 1-.764-1.687c0-.843.311-1.495.945-1.942s1.54-.678 2.718-.678h1.1V14.2c0-.41-.117-.742-.349-.984-.233-.243-.583-.371-1.062-.371q-.62 0-1.009.307t-.388.766h-1.799c0-.434.142-.843.44-1.214.284-.383.686-.677 1.19-.881.505-.218 1.062-.32 1.683-.32.932 0 1.682.23 2.239.703.556.46.841 1.125.854 1.968v3.565c0 .716.103 1.278.298 1.7v.128zm-1.98-1.278a2.1 2.1 0 0 0 .996-.256 1.75 1.75 0 0 0 .712-.69v-1.495h-.971c-.66 0-1.164.115-1.501.345s-.505.55-.505.971c0 .345.117.614.35.818.22.217.53.307.919.307m8.49.012c.452 0 .815-.127 1.113-.383.297-.255.452-.575.478-.958h1.696a2.7 2.7 0 0 1-.466 1.38 2.97 2.97 0 0 1-1.191 1.01 3.66 3.66 0 0 1-1.618.37c-1.125 0-2.006-.358-2.666-1.073-.66-.716-.983-1.7-.983-2.965v-.179c0-1.201.323-2.172.97-2.888.648-.728 1.541-1.086 2.667-1.086.957 0 1.734.268 2.329.818s.919 1.265.945 2.16h-1.696c-.025-.448-.181-.831-.465-1.112-.298-.294-.673-.435-1.126-.435-.583 0-1.036.205-1.346.626s-.479 1.048-.479 1.891v.282q0 1.284.466 1.916c.323.41.776.627 1.372.627m6.212-5.776c.582-.678 1.333-1.01 2.226-1.01 1.708 0 2.575.958 2.601 2.888v5.163h-1.799v-5.1c0-.549-.116-.932-.362-1.162-.233-.23-.596-.345-1.049-.345-.724 0-1.255.32-1.617.946v5.648h-1.799V8.333h1.799zM26.79 7.58c.052-.129.103-.27.155-.397 1.178-3.016 1.372-5.674 1.41-6.415a.68.68 0 0 0-.22-.55.75.75 0 0 0-.556-.217c-.75.039-3.442.243-6.497 1.393a6 6 0 0 0-.414.166A14.2 14.2 0 0 0 14.171.014C6.341.014 0 6.276 0 14.007S6.342 28 14.171 28c7.83 0 14.172-6.262 14.172-13.993a13.4 13.4 0 0 0-1.553-6.428m.828-7.03c.104 0 .194.09.194.192-.039.729-.233 3.297-1.372 6.224a14 14 0 0 0-5.125-5.06C24.292.78 26.893.588 27.618.55"/><path fill="#fff" d="M27.618.55c-1.462.065-10.47.78-14.805 8.294-2.42-.651-3.197.397-3.197.397L6.16 12.653l4.168.447a.73.73 0 0 1 .414.191.67.67 0 0 1 .181.614c-.117.588-.22 1.214-.298 1.853l.88.869.88.869a21 21 0 0 0 1.877-.294.69.69 0 0 1 .621.179.64.64 0 0 1 .194.409l.453 4.115L19 18.518s1.061-.767.4-3.156c7.598-4.294 8.323-13.176 8.4-14.62.026-.102-.064-.191-.181-.191m-7.442 7.54a1.86 1.86 0 0 1 0-2.645 1.915 1.915 0 0 1 2.68 0 1.86 1.86 0 0 1 0 2.645 1.915 1.915 0 0 1-2.68 0"/><path fill="#fff" d="M12.813 8.844c-2.42-.651-3.197.396-3.197.396L6.16 12.652l4.168.448c.155.013.297.09.414.191a.67.67 0 0 1 .181.614c-.117.588-.22 1.214-.298 1.853l.88.869.88.869a21 21 0 0 0 1.877-.294.69.69 0 0 1 .621.179.64.64 0 0 1 .194.409l.453 4.115L19 18.518s1.061-.767.4-3.156c7.598-4.294 8.323-13.176 8.4-14.62zm7.363-.754a1.86 1.86 0 0 1 0-2.645 1.915 1.915 0 0 1 2.68 0 1.86 1.86 0 0 1 0 2.645 1.915 1.915 0 0 1-2.68 0"/><path fill="#F5BC41" d="m12.398 17.509-.88-.87-.88-.868-8.23 5.98c.504.754 1.1 1.47 1.785 2.134a15 15 0 0 0 2.161 1.764z"/></svg>
